source/img/icon-phone-nobg.svg

<svg width="20" height="20" viewBox="0 0 20 20" fill="none" xmlns="http://www.w3.org/2000/svg">
<path d="M16.0743 20C15.2422 20 14.2372 19.7915 13.1319 19.3744C10.7089 18.4609 8.07256 16.6553 5.7087 14.2915C3.34416 11.9269 1.53863 9.28995 0.624436 6.86689C-0.206348 4.6638 -0.208366 2.85558 0.619727 2.02816C0.738795 1.90909 0.859881 1.78128 0.985003 1.64943C1.74044 0.854974 2.5941 -0.0390437 3.72558 0.00131823C4.50524 0.0336078 5.26068 0.517951 6.03429 1.48058C8.32012 4.32341 7.28954 5.3365 6.09685 6.51103L5.88629 6.71957C5.69121 6.91465 5.32257 7.81809 8.75199 11.2475C9.87136 12.3669 10.8259 13.1862 11.5888 13.682C12.0691 13.9941 12.9281 14.4664 13.2806 14.1139L13.4925 13.9C14.6657 12.71 15.6788 11.6827 18.5196 13.9666C19.4822 14.7402 19.9659 15.4949 19.9982 16.2759C20.0446 17.4067 19.1439 18.2624 18.3487 19.0172C18.2175 19.1423 18.0897 19.2634 17.9707 19.3818C17.5596 19.7935 16.9024 20 16.0743 20ZM3.64486 0.672672C2.84098 0.672672 2.11514 1.43686 1.47271 2.11292C1.34355 2.24881 1.21843 2.38066 1.09533 2.50376C0.47846 3.11995 0.541021 4.73914 1.25408 6.6301C2.13532 8.96571 3.88636 11.5179 6.18497 13.8165C8.48291 16.1138 11.0338 17.8649 13.3701 18.7454C15.261 19.4598 16.8802 19.5204 17.4957 18.9048C17.6188 18.7817 17.7507 18.6566 17.8866 18.5281C18.5774 17.8716 19.3611 17.1276 19.3268 16.3022C19.3033 15.7351 18.8902 15.1249 18.0991 14.4892C15.7319 12.5855 15.07 13.2575 13.9721 14.3709L13.7569 14.5881C13.2322 15.1135 12.3799 14.9971 11.2228 14.2451C10.4203 13.723 9.42873 12.8741 8.27707 11.7218C5.43087 8.87624 4.52071 7.13462 5.41137 6.24195L5.62596 6.03005C6.74196 4.93221 7.41534 4.2696 5.51092 1.90102C4.87388 1.1106 4.26441 0.697562 3.69733 0.673345C3.67984 0.672672 3.66235 0.672672 3.64486 0.672672Z" fill="#57AB27"/>
</svg>

<svg width="20" height="20" fill="none" xmlns="http://www.w3.org/2000/svg"><path d="M16.074 20c-.832 0-1.837-.209-2.942-.626-2.423-.913-5.06-2.719-7.423-5.082C3.344 11.926 1.539 9.29.624 6.866c-.83-2.202-.832-4.01-.004-4.838.119-.119.24-.247.365-.379C1.74.855 2.595-.039 3.725.001c.78.033 1.536.517 2.31 1.48 2.285 2.842 1.255 3.856.062 5.03l-.21.209c-.196.195-.564 1.098 2.865 4.528 1.12 1.119 2.074 1.938 2.837 2.434.48.312 1.34.784 1.692.432l.211-.214c1.174-1.19 2.187-2.217 5.028.067.962.773 1.446 1.528 1.478 2.309.047 1.13-.854 1.986-1.65 2.741-.13.125-.258.246-.377.365-.411.412-1.069.618-1.897.618zM3.644.673c-.803 0-1.529.764-2.171 1.44-.13.136-.255.268-.378.39-.617.617-.554 2.236.16 4.127.88 2.336 2.631 4.888 4.93 7.186 2.298 2.298 4.849 4.049 7.185 4.93 1.891.714 3.51.774 4.126.159.123-.123.255-.248.39-.377.691-.656 1.475-1.4 1.44-2.226-.023-.567-.436-1.177-1.227-1.813-2.367-1.904-3.029-1.232-4.127-.118l-.215.217c-.525.526-1.377.41-2.534-.343-.803-.522-1.794-1.37-2.946-2.523-2.846-2.846-3.756-4.587-2.866-5.48l.215-.212c1.116-1.098 1.79-1.76-.115-4.129C4.874 1.111 4.264.698 3.697.673h-.052z" fill="#57AB27"/></svg>
